swiss/communes/5227.svg

<svg xmlns="http://www.w3.org/2000/svg" xmlns:xlink="http://www.w3.org/1999/xlink" height="763" width="603" version="1.0"><defs><radialGradient xlink:href="#a" id="b" gradientUnits="userSpaceOnUse" gradientTransform="matrix(1.21503 0 0 1.26667 -839.192 -490.49)" cx="858.042" cy="579.933" fx="858.042" fy="579.933" r="300"/><linearGradient id="a"><stop style="stop-color:#fff;stop-opacity:.3137255" offset="0"/><stop offset=".19" style="stop-color:#fff;stop-opacity:.25098041"/><stop style="stop-color:#6b6b6b;stop-opacity:.1254902" offset=".6"/><stop style="stop-color:#000;stop-opacity:.1254902" offset="1"/></linearGradient></defs><g style="opacity:1;display:inline"><path d="M1.5 1.5v458.868c0 166.311 134.314 301.132 300 301.132s300-134.821 300-301.132V1.5H1.5z" style="opacity:1;fill:#fff"/><path style="opacity:1;fill:#2b5df2" d="M4.21 500.875C23.924 648.027 149.501 761.5 301.5 761.5c151.999 0 277.576-113.473 297.289-260.625H4.21z"/></g><g style="opacity:1;display:inline"><path style="fill:#fff" d="M568.239 598.27c-32.558-4.602-44.511-29.288-81.785-29.288-41.103 0-51.376 30.053-92.478 30.053s-51.376-30.053-92.478-30.053-51.376 30.053-92.478 30.053-51.376-30.053-92.477-30.053c-37.274 0-49.228 24.688-81.785 29.288a301.598 301.598 0 0 0 35.224 53.58c12.954-7.567 25.844-15.197 46.561-15.197 41.101 0 51.375 30.054 92.477 30.054 41.102 0 51.376-30.054 92.478-30.054s51.376 30.054 92.478 30.054 51.375-30.054 92.478-30.054c20.717 0 33.606 7.63 46.562 15.197a301.665 301.665 0 0 0 35.223-53.58z"/><path style="fill:none;stroke:#000;stroke-width:3" d="M533.043 651.866c-12.963-7.574-25.857-15.215-46.589-15.215-41.103 0-51.376 30.054-92.478 30.054s-51.376-30.054-92.478-30.054-51.376 30.054-92.478 30.054-51.376-30.054-92.477-30.054c-20.729 0-33.622 7.639-46.583 15.212M568.232 598.285c-32.563-4.6-44.501-29.305-81.778-29.305-41.103 0-51.376 30.053-92.478 30.053S342.6 568.98 301.498 568.98s-51.376 30.053-92.478 30.053-51.376-30.053-92.477-30.053c-37.286 0-49.22 24.718-81.8 29.308M4.21 500.875h594.579"/><path d="M141.604 440.773c0-9.95 9.326-18.017 20.832-18.017 11.505 0 20.831 8.066 20.831 18.017v60.102h61.932L213.67 275.248l-14.075-7.882h-74.318l-14.075 7.882-31.529 225.627h61.932v-60.102h-.001z" style="fill:#e20909;stroke:#000;stroke-width:3;stroke-linecap:round;stroke-linejoin:round"/><path style="fill:#e20909;stroke:#000;stroke-width:3;stroke-linecap:round;stroke-linejoin:round" d="M203.536 232.458v18.017h-25.618v-18.017h-30.965v18.017h-25.617v-18.017H90.37v42.79h144.131v-42.79h-30.965zM461.396 440.773c0-9.95-9.327-18.017-20.831-18.017-11.506 0-20.832 8.066-20.832 18.017v60.102h-61.932l31.529-225.627 14.075-7.882h74.317l14.075 7.882 31.529 225.627h-61.932v-60.102h.002z"/><path style="fill:#e20909;stroke:#000;stroke-width:3;stroke-linecap:round;stroke-linejoin:round" d="M399.464 232.458v18.017h25.617v-18.017h30.966v18.017h25.617v-18.017h30.966v42.79H368.498v-42.79h30.966z"/><path style="stroke:#000;stroke-width:2;stroke-linecap:round;stroke-linejoin:round" d="M338.079 90.259c0-12.498 12.192-20.728 12.192-20.728-25.604 3.658-25.604-9.449-36.579-9.449-10.973 0-14.631 8.535-14.631 8.535-14.022-6.706-28.043 6.706-28.043 6.706 19.223 0 24.521 11.068 25.975 17.698-2.623 1.438-7.405 3.436-13.783 3.436-11.381 0-23.166-12.599-24.996-8.332-1.829 4.268 7.927 14.226 17.477 14.226 6.653 0 17.244-2.073 21.826-5.529.034.667.02 1.058.02 1.058-3.963 8.079-19.508 13.107-19.508 13.107 12.803 2.134 19.204-4.572 19.204-4.572 4.268 10.059-2.743 18.289-2.743 23.471h-7.163c-13.92-2.743-15.954 6.198-13.515 16.765 6.982 30.256 17.527 41.254 17.527 59.949 0 40.642-30.278 27.84-30.278 27.84 7.519 21.744 28.45 18.086 28.45 18.086 0 15.038 11.99 23.37 11.99 23.37s11.99-8.332 11.99-23.37c0 0 20.93 3.657 28.449-18.086 0 0-30.277 12.802-30.277-27.84 0-20.729 17.403-29.693 24.385-59.949 2.439-10.567.405-19.508-13.515-16.765 0-4.572 2.286-9.297 7.621-14.631 5.333-5.335 7.925-12.498 7.925-24.996z"/><path style="stroke:#000;stroke-width:2;stroke-linecap:round;stroke-linejoin:round" d="M507.865 221.028s-38.104-36.274-28.654-45.724c0 0 27.129 40.847 57.612 50.601 0 0-31.819-32.065-35.438-58.308 0 0-14.959 6.285-39.143-3.672-24.184-9.958-22.962-26.012-22.962-26.012 10.566 14.022 28.043 21.338 28.043 21.338-15.646-12.396-11.99-21.338-11.99-21.338 11.99 16.664 32.515 21.338 32.515 21.338-19.203-14.53-16.664-21.338-16.664-21.338 30.482 28.044 53.142 22.76 53.142 22.76s-28.653-11.278-34.75-37.798c-6.096-26.52-14.937-43.285-37.492-43.285-22.558 0-35.665 25.3-22.558 48.467h-91.252l.055.051c2.725 2.814 4.092 6.71 4.092 11.631 0 2.46-.342 5.178-1.026 8.146-3.602 15.608-9.962 26.088-15.072 34.511l-.295.486c4.299 9.66 9.363 23.496 12.662 40.585 0 0 .61-14.022 5.487-21.643 0 0 20.026 17.525 59.176 20.81-10.629 0-7.661 9.825-4.004 9.825 3.658 0 6.25-1.067 6.25-4.267 0-3.201 5.028-5.03 10.516-5.03 5.486 0 10.974-.305 16.156 2.896 5.182 3.2 13.563 5.03 17.679 3.048 4.115-1.981 3.048-10.821-4.572-10.821-7.621 0-7.925 3.811-13.564 3.811h-14.631c12.803-9.45 15.241-2.896 19.813-7.468 4.572-4.572.913-11.202-5.106-11.202-6.021 0-7.696 7.697-7.696 9.678 0 1.981-5.183 7.315-8.078 7.315-9.145 0-47.552-4.267-57.916-25.91 0 0 10.668 5.792 20.422 1.524 0 0-19.051-7.925-20.88-20.88 0 0 13.261 16.003 37.036 16.003 0 0-10.669-7.621-5.486-15.851 0 0 8.433 13.259 33.732 15.242 0 0-5.993-7.011-3.25-15.242 0 0 10.363 15.242 19.813 15.242 0 0-8.383-9.603-2.743-15.242 0 0 17.68 28.958 45.723 45.724 0 0-25.985-29.644-24.386-45.724-.002-.001 22.554 38.407 49.684 45.723zm-236.335-92.92c.018-.019.039-.033.057-.051h-98.113c13.108-23.167 0-48.467-22.556-48.467-22.557 0-31.397 16.765-37.494 43.285-6.096 26.52-34.75 37.798-34.75 37.798s22.659 5.284 53.141-22.76c0 0 2.541 6.808-16.663 21.338 0 0 20.524-4.674 32.514-21.338 0 0 3.658 8.942-11.99 21.338 0 0 17.477-7.315 28.044-21.338 0 0 1.22 16.055-22.963 26.012s-39.143 3.672-39.143 3.672c-3.619 26.243-35.437 58.308-35.437 58.308 30.482-9.754 57.611-50.601 57.611-50.601 9.449 9.45-28.653 45.724-28.653 45.724 27.129-7.315 49.686-45.724 49.686-45.724 1.601 16.08-24.386 45.724-24.386 45.724 28.043-16.766 45.723-45.724 45.723-45.724 5.64 5.639-2.743 15.242-2.743 15.242 9.449 0 19.813-15.242 19.813-15.242 2.744 8.23-3.25 15.242-3.25 15.242 25.301-1.982 33.733-15.242 33.733-15.242 5.182 8.23-5.487 15.851-5.487 15.851 23.776 0 37.036-16.003 37.036-16.003-1.829 12.955-20.88 20.88-20.88 20.88 9.754 4.268 20.423-1.524 20.423-1.524-10.364 21.643-48.771 25.91-57.916 25.91-2.896 0-8.078-5.334-8.078-7.315 0-1.981-1.677-9.678-7.697-9.678s-9.678 6.63-5.105 11.202c4.572 4.572 7.011-1.981 19.813 7.468h-14.631c-5.639 0-5.944-3.811-13.565-3.811-7.62 0-8.688 8.84-4.572 10.821 4.115 1.982 12.498.152 17.68-3.048 5.182-3.201 10.668-2.896 16.155-2.896 5.487 0 10.517 1.829 10.517 5.03 0 3.2 2.591 4.267 6.249 4.267 3.658 0 6.625-9.825-4.003-9.825 39.148-3.285 59.176-20.81 59.176-20.81 4.877 7.621 5.487 21.643 5.487 21.643 3.732-19.335 9.726-34.511 14.311-44.176-3.194-8.021-7.051-17.943-10.158-31.406-2.055-8.9-1.024-15.554 3.064-19.776z"/><path style="fill:#fff;stroke:#000;stroke-width:2;stroke-linecap:round;stroke-linejoin:round" d="M305.38 81.236s1.937-5.208 7.507-5.208c5.569 0 5.449 3.512 8.356 4.722 0 0-3.149 5.45-8.961 5.45-4.965.001-6.902-3.995-6.902-4.964z"/></g><g style="display:inline"><path style="fill:url(#b);fill-opacity:1" d="M1.5 1.5v458.868c0 166.31 134.315 301.132 300 301.132s300-134.821 300-301.132V1.5H1.5z"/></g><g style="display:inline"><path style="fill:none;fill-opacity:1;stroke:#000;stroke-width:3;stroke-miterlimit:4;stroke-dasharray:none;stroke-opacity:1" d="M1.5 1.5v458.868c0 166.31 134.315 301.132 300 301.132s300-134.821 300-301.132V1.5H1.5z"/></g></svg>

<?xml version="1.0" encoding="UTF-8" standalone="no"?>
<svg
   xmlns:dc="http://purl.org/dc/elements/1.1/"
   xmlns:cc="http://creativecommons.org/ns#"
   xmlns:rdf="http://www.w3.org/1999/02/22-rdf-syntax-ns#"
   xmlns:svg="http://www.w3.org/2000/svg"
   xmlns="http://www.w3.org/2000/svg"
   xmlns:xlink="http://www.w3.org/1999/xlink"
   xmlns:sodipodi="http://sodipodi.sourceforge.net/DTD/sodipodi-0.dtd"
   xmlns:inkscape="http://www.inkscape.org/namespaces/inkscape"
   height="763"
   width="603"
   version="1.0"
   id="svg20"
   sodipodi:version="0.32"
   inkscape:version="0.46"
   sodipodi:docname="Torricella-Taverne-coat_of_arms.svg"
   sodipodi:docbase="C:\Documents and Settings\Steve\Bureau\Blason Villages Suisse pour Wikipédia (par Delta-9)"
   inkscape:output_extension="org.inkscape.output.svg.inkscape">
  <metadata
     id="metadata31">
    <rdf:RDF>
      <cc:Work
         rdf:about="">
        <dc:format>image/svg+xml</dc:format>
        <dc:type
           rdf:resource="http://purl.org/dc/dcmitype/StillImage" />
        <dc:date>07-AUG-2006</dc:date>
        <dc:creator>
          <cc:Agent>
            <dc:title>Jérôme BLUM (wagner51)</dc:title>
          </cc:Agent>
        </dc:creator>
        <cc:license
           rdf:resource="http://creativecommons.org/licenses/GPL/2.0/" />
        <dc:coverage />
        <dc:description>Gabarit pour le Projet:Blasons de WIkipédia</dc:description>
        <dc:subject>
          <rdf:Bag>
            <rdf:li>blason suisse modèle gabarit projet blasons</rdf:li>
          </rdf:Bag>
        </dc:subject>
        <dc:language>fr</dc:language>
        <dc:title>Gabrit d'un blason suisse</dc:title>
      </cc:Work>
      <cc:License
         rdf:about="http://creativecommons.org/licenses/GPL/2.0/">
        <cc:permits
           rdf:resource="http://web.resource.org/cc/Reproduction" />
        <cc:permits
           rdf:resource="http://web.resource.org/cc/Distribution" />
        <cc:requires
           rdf:resource="http://web.resource.org/cc/Notice" />
        <cc:permits
           rdf:resource="http://web.resource.org/cc/DerivativeWorks" />
        <cc:requires
           rdf:resource="http://web.resource.org/cc/ShareAlike" />
        <cc:requires
           rdf:resource="http://web.resource.org/cc/SourceCode" />
      </cc:License>
    </rdf:RDF>
  </metadata>
  <defs
     id="defs29"><inkscape:perspective
   sodipodi:type="inkscape:persp3d"
   inkscape:vp_x="0 : 381.5 : 1"
   inkscape:vp_y="0 : 1000 : 0"
   inkscape:vp_z="603 : 381.5 : 1"
   inkscape:persp3d-origin="301.5 : 254.33333 : 1"
   id="perspective28" />
<linearGradient
   id="linearGradient2893">
  <stop
     style="stop-color:#ffffff;stop-opacity:0.3137255;"
     offset="0"
     id="stop2895" />
  <stop
     id="stop2897"
     offset="0.19"
     style="stop-color:#ffffff;stop-opacity:0.25098041;" />
  <stop
     style="stop-color:#6b6b6b;stop-opacity:0.1254902;"
     offset="0.60000002"
     id="stop2901" />
  <stop
     style="stop-color:#000000;stop-opacity:0.1254902;"
     offset="1"
     id="stop2899" />
</linearGradient>
<linearGradient
   id="linearGradient2955">
  <stop
     style="stop-color:white;stop-opacity:0;"
     offset="0"
     id="stop2965" />
  <stop
     style="stop-color:black;stop-opacity:0.64583331;"
     offset="1"
     id="stop2959" />
</linearGradient>
<radialGradient
   inkscape:collect="always"
   xlink:href="#linearGradient2893"
   id="radialGradient3236"
   gradientUnits="userSpaceOnUse"
   gradientTransform="matrix(1.215027,1.531577e-24,1.464684e-23,1.266667,-839.1924,-490.4894)"
   cx="858.04236"
   cy="579.93323"
   fx="858.04236"
   fy="579.93323"
   r="300" />
<inkscape:perspective
   id="perspective2519"
   inkscape:persp3d-origin="306 : 264 : 1"
   inkscape:vp_z="612 : 396 : 1"
   inkscape:vp_y="0 : 1000 : 0"
   inkscape:vp_x="0 : 396 : 1"
   sodipodi:type="inkscape:persp3d" />

	
	
	

	

		
		
		
	
		
		
	
		
		
		
		
		
	
			
			
		
			
			
		</defs>
  <sodipodi:namedview
     inkscape:window-height="691"
     inkscape:window-width="939"
     inkscape:pageshadow="2"
     inkscape:pageopacity="0.0"
     guidetolerance="10.0"
     gridtolerance="10.0"
     objecttolerance="10.0"
     borderopacity="1.0"
     bordercolor="#666666"
     pagecolor="#ffffff"
     id="base"
     inkscape:zoom="0.47830847"
     inkscape:cx="65.38072"
     inkscape:cy="409.43336"
     inkscape:window-x="1356"
     inkscape:window-y="87"
     inkscape:current-layer="layer1"
     showgrid="false"
     showguides="true"
     inkscape:guide-bbox="true">
    <sodipodi:guide
       orientation="horizontal"
       position="761.5"
       id="guide1885" />
    <sodipodi:guide
       orientation="vertical"
       position="1.5"
       id="guide1887" />
    <sodipodi:guide
       orientation="horizontal"
       position="1.5"
       id="guide1889" />
    <sodipodi:guide
       orientation="vertical"
       position="601.5"
       id="guide1891" />
    <sodipodi:guide
       orientation="vertical"
       position="301.50081"
       id="guide1893" />
  </sodipodi:namedview>
  <desc
     id="desc22">Coat of Arms of Canton of Freiburg (Fribourg)</desc>
  <g
     inkscape:groupmode="layer"
     id="layer1"
     inkscape:label="Fond écu"
     style="opacity:1;display:inline"
     sodipodi:insensitive="true">
    <path
       d="M 1.5,1.5 L 1.5,460.368 C 1.5,626.679 135.814,761.5 301.5,761.5 C 467.186,761.5 601.5,626.679 601.5,460.368 L 601.5,1.5 L 1.5,1.5 z"
       id="path2672"
       style="opacity:1;fill:#ffffff" />
    <path
       style="opacity:1;fill:#2b5df2"
       id="path2569"
       d="M 4.21,500.875 C 23.924,648.027 149.501,761.5 301.5,761.5 C 453.499,761.5 579.076,648.027 598.789,500.875 L 4.21,500.875 z" />
  </g>
  <g
     inkscape:groupmode="layer"
     id="layer2"
     inkscape:label="Meubles"
     style="opacity:1;display:inline"
     sodipodi:insensitive="true">
    <path
       style="fill:#ffffff"
       id="path2575"
       d="M 568.239,598.27 C 535.681,593.668 523.728,568.982 486.454,568.982 C 445.351,568.982 435.078,599.035 393.976,599.035 C 352.874,599.035 342.6,568.982 301.498,568.982 C 260.396,568.982 250.122,599.035 209.02,599.035 C 167.918,599.035 157.644,568.982 116.543,568.982 C 79.269,568.982 67.315,593.67 34.758,598.27 C 44.602,617.42 56.439,635.369 69.982,651.85 C 82.936,644.283 95.826,636.653 116.543,636.653 C 157.644,636.653 167.918,666.707 209.02,666.707 C 250.122,666.707 260.396,636.653 301.498,636.653 C 342.6,636.653 352.874,666.707 393.976,666.707 C 435.078,666.707 445.351,636.653 486.454,636.653 C 507.171,636.653 520.06,644.283 533.016,651.85 C 546.559,635.367 558.395,617.42 568.239,598.27 z" />
    <path
       style="fill:none;stroke:#000000;stroke-width:3"
       id="path2579_99_"
       d="M 533.043,651.866 C 520.08,644.292 507.186,636.651 486.454,636.651 C 445.351,636.651 435.078,666.705 393.976,666.705 C 352.874,666.705 342.6,636.651 301.498,636.651 C 260.396,636.651 250.122,666.705 209.02,666.705 C 167.918,666.705 157.644,636.651 116.543,636.651 C 95.814,636.651 82.921,644.29 69.96,651.863" />
    <path
       style="fill:none;stroke:#000000;stroke-width:3"
       id="path2579_97_"
       d="M 568.232,598.285 C 535.669,593.685 523.731,568.98 486.454,568.98 C 445.351,568.98 435.078,599.033 393.976,599.033 C 352.874,599.033 342.6,568.98 301.498,568.98 C 260.396,568.98 250.122,599.033 209.02,599.033 C 167.918,599.033 157.644,568.98 116.543,568.98 C 79.257,568.98 67.323,593.698 34.743,598.288" />
    <line
       style="fill:none;stroke:#000000;stroke-width:3"
       id="line2583"
       x1="4.21"
       y1="500.875"
       x2="598.789"
       y2="500.875" />
    <path
       id="path2496"
       d="M 141.604,440.773 C 141.604,430.823 150.93,422.756 162.436,422.756 C 173.941,422.756 183.267,430.822 183.267,440.773 L 183.267,500.875 L 245.199,500.875 L 213.67,275.248 L 199.595,267.366 L 125.277,267.366 L 111.202,275.248 L 79.673,500.875 L 141.605,500.875 L 141.605,440.773 L 141.604,440.773 z"
       style="fill:#e20909;stroke:#000000;stroke-width:3;stroke-linecap:round;stroke-linejoin:round" />
    <polygon
       id="polygon2498"
       points="203.536,232.458 203.536,250.475 177.918,250.475 177.918,232.458 146.953,232.458 146.953,250.475 121.336,250.475 121.336,232.458 90.37,232.458 90.37,275.248 234.501,275.248 234.501,232.458 203.536,232.458 "
       style="fill:#e20909;stroke:#000000;stroke-width:3;stroke-linecap:round;stroke-linejoin:round" />
    <path
       id="path2502"
       d="M 461.396,440.773 C 461.396,430.823 452.069,422.756 440.565,422.756 C 429.059,422.756 419.733,430.822 419.733,440.773 L 419.733,500.875 L 357.801,500.875 L 389.33,275.248 L 403.405,267.366 L 477.722,267.366 L 491.797,275.248 L 523.326,500.875 L 461.394,500.875 L 461.394,440.773 L 461.396,440.773 z"
       style="fill:#e20909;stroke:#000000;stroke-width:3;stroke-linecap:round;stroke-linejoin:round" />
    <polygon
       id="polygon2504"
       points="399.464,232.458 399.464,250.475 425.081,250.475 425.081,232.458 456.047,232.458 456.047,250.475 481.664,250.475 481.664,232.458 512.63,232.458 512.63,275.248 368.498,275.248 368.498,232.458 399.464,232.458 "
       style="fill:#e20909;stroke:#000000;stroke-width:3;stroke-linecap:round;stroke-linejoin:round" />
    <path
       style="stroke:#000000;stroke-width:2;stroke-linecap:round;stroke-linejoin:round"
       d="M 338.079,90.259 C 338.079,77.761 350.271,69.531 350.271,69.531 C 324.667,73.189 324.667,60.082 313.692,60.082 C 302.719,60.082 299.061,68.617 299.061,68.617 C 285.039,61.911 271.018,75.323 271.018,75.323 C 290.241,75.323 295.539,86.391 296.993,93.021 C 294.37,94.459 289.588,96.457 283.21,96.457 C 271.829,96.457 260.044,83.858 258.214,88.125 C 256.385,92.393 266.141,102.351 275.691,102.351 C 282.344,102.351 292.935,100.278 297.517,96.822 C 297.551,97.489 297.537,97.88 297.537,97.88 C 293.574,105.959 278.029,110.987 278.029,110.987 C 290.832,113.121 297.233,106.415 297.233,106.415 C 301.501,116.474 294.49,124.704 294.49,129.886 L 287.327,129.886 C 273.407,127.143 271.373,136.084 273.812,146.651 C 280.794,176.907 291.339,187.905 291.339,206.6 C 291.339,247.242 261.061,234.44 261.061,234.44 C 268.58,256.184 289.511,252.526 289.511,252.526 C 289.511,267.564 301.501,275.896 301.501,275.896 C 301.501,275.896 313.491,267.564 313.491,252.526 C 313.491,252.526 334.421,256.183 341.94,234.44 C 341.94,234.44 311.663,247.242 311.663,206.6 C 311.663,185.871 329.066,176.907 336.048,146.651 C 338.487,136.084 336.453,127.143 322.533,129.886 C 322.533,125.314 324.819,120.589 330.154,115.255 C 335.487,109.92 338.079,102.757 338.079,90.259 z"
       id="path2508" />
    <path
       style="stroke:#000000;stroke-width:2;stroke-linecap:round;stroke-linejoin:round"
       d="M 507.865,221.028 C 507.865,221.028 469.761,184.754 479.211,175.304 C 479.211,175.304 506.34,216.151 536.823,225.905 C 536.823,225.905 505.004,193.84 501.385,167.597 C 501.385,167.597 486.426,173.882 462.242,163.925 C 438.058,153.967 439.28,137.913 439.28,137.913 C 449.846,151.935 467.323,159.251 467.323,159.251 C 451.677,146.855 455.333,137.913 455.333,137.913 C 467.323,154.577 487.848,159.251 487.848,159.251 C 468.645,144.721 471.184,137.913 471.184,137.913 C 501.666,165.957 524.326,160.673 524.326,160.673 C 524.326,160.673 495.673,149.395 489.576,122.875 C 483.48,96.355 474.639,79.59 452.084,79.59 C 429.526,79.59 416.419,104.89 429.526,128.057 L 338.274,128.057 C 338.292,128.075 338.311,128.09 338.329,128.108 C 341.054,130.922 342.421,134.818 342.421,139.739 C 342.421,142.199 342.079,144.917 341.395,147.885 C 337.793,163.493 331.433,173.973 326.323,182.396 C 326.223,182.56 326.127,182.72 326.028,182.882 C 330.327,192.542 335.391,206.378 338.69,223.467 C 338.69,223.467 339.3,209.445 344.177,201.824 C 344.177,201.824 364.203,219.349 403.353,222.634 C 392.724,222.634 395.692,232.459 399.349,232.459 C 403.007,232.459 405.599,231.392 405.599,228.192 C 405.599,224.991 410.627,223.162 416.115,223.162 C 421.601,223.162 427.089,222.857 432.271,226.058 C 437.453,229.258 445.834,231.088 449.95,229.106 C 454.065,227.125 452.998,218.285 445.378,218.285 C 437.757,218.285 437.453,222.096 431.814,222.096 C 426.175,222.096 417.183,222.096 417.183,222.096 C 429.986,212.646 432.424,219.2 436.996,214.628 C 441.568,210.056 437.909,203.426 431.89,203.426 C 425.869,203.426 424.194,211.123 424.194,213.104 C 424.194,215.085 419.011,220.419 416.116,220.419 C 406.971,220.419 368.564,216.152 358.2,194.509 C 358.2,194.509 368.868,200.301 378.622,196.033 C 378.622,196.033 359.571,188.108 357.742,175.153 C 357.742,175.153 371.003,191.156 394.778,191.156 C 394.778,191.156 384.109,183.535 389.292,175.305 C 389.292,175.305 397.725,188.564 423.024,190.547 C 423.024,190.547 417.031,183.536 419.774,175.305 C 419.774,175.305 430.137,190.547 439.587,190.547 C 439.587,190.547 431.204,180.944 436.844,175.305 C 436.844,175.305 454.524,204.263 482.567,221.029 C 482.567,221.029 456.582,191.385 458.181,175.305 C 458.179,175.304 480.735,213.712 507.865,221.028 z M 271.53,128.108 C 271.548,128.089 271.569,128.075 271.587,128.057 L 173.474,128.057 C 186.582,104.89 173.474,79.59 150.918,79.59 C 128.361,79.59 119.521,96.355 113.424,122.875 C 107.328,149.395 78.674,160.673 78.674,160.673 C 78.674,160.673 101.333,165.957 131.815,137.913 C 131.815,137.913 134.356,144.721 115.152,159.251 C 115.152,159.251 135.676,154.577 147.666,137.913 C 147.666,137.913 151.324,146.855 135.676,159.251 C 135.676,159.251 153.153,151.936 163.72,137.913 C 163.72,137.913 164.94,153.968 140.757,163.925 C 116.574,173.882 101.614,167.597 101.614,167.597 C 97.995,193.84 66.177,225.905 66.177,225.905 C 96.659,216.151 123.788,175.304 123.788,175.304 C 133.237,184.754 95.135,221.028 95.135,221.028 C 122.264,213.713 144.821,175.304 144.821,175.304 C 146.422,191.384 120.435,221.028 120.435,221.028 C 148.478,204.262 166.158,175.304 166.158,175.304 C 171.798,180.943 163.415,190.546 163.415,190.546 C 172.864,190.546 183.228,175.304 183.228,175.304 C 185.972,183.534 179.978,190.546 179.978,190.546 C 205.279,188.564 213.711,175.304 213.711,175.304 C 218.893,183.534 208.224,191.155 208.224,191.155 C 232,191.155 245.26,175.152 245.26,175.152 C 243.431,188.107 224.38,196.032 224.38,196.032 C 234.134,200.3 244.803,194.508 244.803,194.508 C 234.439,216.151 196.032,220.418 186.887,220.418 C 183.991,220.418 178.809,215.084 178.809,213.103 C 178.809,211.122 177.132,203.425 171.112,203.425 C 165.092,203.425 161.434,210.055 166.007,214.627 C 170.579,219.199 173.018,212.646 185.82,222.095 C 185.82,222.095 176.828,222.095 171.189,222.095 C 165.55,222.095 165.245,218.284 157.624,218.284 C 150.004,218.284 148.936,227.124 153.052,229.105 C 157.167,231.087 165.55,229.257 170.732,226.057 C 175.914,222.856 181.4,223.161 186.887,223.161 C 192.374,223.161 197.404,224.99 197.404,228.191 C 197.404,231.391 199.995,232.458 203.653,232.458 C 207.311,232.458 210.278,222.633 199.65,222.633 C 238.798,219.348 258.826,201.823 258.826,201.823 C 263.703,209.444 264.313,223.466 264.313,223.466 C 268.045,204.131 274.039,188.955 278.624,179.29 C 275.43,171.269 271.573,161.347 268.466,147.884 C 266.411,138.984 267.442,132.33 271.53,128.108 z"
       id="path2510" />
    <path
       style="fill:#ffffff;stroke:#000000;stroke-width:2;stroke-linecap:round;stroke-linejoin:round"
       d="M 305.38,81.236 C 305.38,81.236 307.317,76.028 312.887,76.028 C 318.456,76.028 318.336,79.54 321.243,80.75 C 321.243,80.75 318.094,86.2 312.282,86.2 C 307.317,86.201 305.38,82.205 305.38,81.236 z"
       id="path2512" />
  </g>
  <g
     inkscape:groupmode="layer"
     id="layer3"
     inkscape:label="Reflet final"
     style="display:inline"
     sodipodi:insensitive="true">
    <path
       style="fill:url(#radialGradient3236);fill-opacity:1"
       d="M 1.5,1.5 L 1.5,460.3679 C 1.5,626.67854 135.81454,761.5 301.49993,761.5 C 467.1854,761.5 601.5,626.67854 601.5,460.3679 L 601.5,1.5 L 1.5,1.5 z "
       id="path2346" />
  </g>
  <g
     inkscape:groupmode="layer"
     id="layer4"
     inkscape:label="Contour final"
     style="display:inline"
     sodipodi:insensitive="true">
    <path
       style="fill:none;fill-opacity:1;stroke:#000000;stroke-width:3;stroke-miterlimit:4;stroke-dasharray:none;stroke-opacity:1"
       d="M 1.5,1.5 L 1.5,460.36794 C 1.5,626.67854 135.81454,761.5 301.49993,761.5 C 467.1854,761.5 601.5,626.67854 601.5,460.36794 L 601.5,1.5 L 1.5,1.5 z "
       id="path3239" />
  </g>
</svg>
